src/assets/duotone/WalletRemove.svg

<?xml version="1.0" encoding="UTF-8"?>
<svg width="24" height="24" viewBox="0 0 24 24" xmlns="http://www.w3.org/2000/svg">
 <path d="M22 12V17C22 20 20 22 17 22H7.63C7.94 21.74 8.20998 21.42 8.41998 21.06C8.78998 20.46 9 19.75 9 19C9 16.79 7.21 15 5 15C3.8 15 2.73 15.53 2 16.36V12C2 9.28 3.64 7.38 6.19 7.06C6.45 7.02 6.72 7 7 7H17C17.26 7 17.51 7.00999 17.75 7.04999C20.33 7.34999 22 9.26 22 12Z" opacity=".4"/>
 <path d="m17.75 7.05c-0.24-0.04-0.49-0.04999-0.75-0.04999h-10c-0.28 0-0.55 0.02-0.81 0.06 0.14-0.28 0.34002-0.53997 0.58002-0.77997l3.25-3.26c1.37-1.36 3.5899-1.36 4.9599 0l1.75 1.77c0.64 0.63 0.98 1.43 1.02 2.26z"/>
 <path d="m22 12.5h-3c-1.1 0-2 0.9-2 2s0.9 2 2 2h3"/>
 <path d="m5 15c-1.2 0-2.27 0.53-3 1.36-0.62 0.71-1 1.63-1 2.64 0 0.75 0.21002 1.46 0.58002 2.06 0.69 1.16 1.96 1.94 3.42 1.94 1.01 0 1.93-0.37 2.63-1 0.31-0.26 0.57998-0.58 0.78998-0.94 0.37-0.6 0.58002-1.31 0.58002-2.06 0-2.21-1.79-4-4-4zm1.6 5.58c-0.15 0.15-0.33997 0.22-0.52997 0.22s-0.38003-0.07-0.53003-0.22l-0.52997-0.53-0.54999 0.55c-0.15 0.15-0.34003 0.22-0.53003 0.22s-0.37997-0.07-0.52997-0.22c-0.29-0.29-0.29-0.77 0-1.06l0.54999-0.55-0.53003-0.53c-0.29-0.29-0.29-0.77 0-1.06s0.77-0.29 1.06 0l0.53003 0.53 0.5-0.5c0.29-0.29 0.77-0.29 1.06 0s0.29 0.77 0 1.06l-0.5 0.5 0.52997 0.53c0.29 0.29 0.29 0.76 0 1.06z"/>
</svg>

<svg width="24" height="24" viewBox="0 0 24 24"  xmlns="http://www.w3.org/2000/svg">
<path opacity="0.4" d="M22 12V17C22 20 20 22 17 22H7.63C7.94 21.74 8.20998 21.42 8.41998 21.06C8.78998 20.46 9 19.75 9 19C9 16.79 7.21 15 5 15C3.8 15 2.73 15.53 2 16.36V12C2 9.28 3.64 7.38 6.19 7.06C6.45 7.02 6.72 7 7 7H17C17.26 7 17.51 7.00999 17.75 7.04999C20.33 7.34999 22 9.26 22 12Z" />
<path d="M17.7499 7.04997C17.5099 7.00997 17.2599 6.99998 16.9999 6.99998H6.99994C6.71994 6.99998 6.44994 7.01998 6.18994 7.05998C6.32994 6.77998 6.52996 6.52001 6.76996 6.28001L10.02 3.02C11.39 1.66 13.6099 1.66 14.9799 3.02L16.7299 4.78996C17.3699 5.41996 17.7099 6.21997 17.7499 7.04997Z" />
<path d="M22 12.5H19C17.9 12.5 17 13.4 17 14.5C17 15.6 17.9 16.5 19 16.5H22" />
<path d="M5 15C3.8 15 2.73 15.53 2 16.36C1.38 17.07 1 17.99 1 19C1 19.75 1.21002 20.46 1.58002 21.06C2.27002 22.22 3.54 23 5 23C6.01 23 6.93001 22.63 7.63 22C7.94 21.74 8.20998 21.42 8.41998 21.06C8.78998 20.46 9 19.75 9 19C9 16.79 7.21 15 5 15ZM6.59998 20.58C6.44998 20.73 6.26001 20.8 6.07001 20.8C5.88001 20.8 5.68998 20.73 5.53998 20.58L5.01001 20.05L4.46002 20.6C4.31002 20.75 4.11999 20.82 3.92999 20.82C3.73999 20.82 3.55002 20.75 3.40002 20.6C3.11002 20.31 3.11002 19.83 3.40002 19.54L3.95001 18.99L3.41998 18.46C3.12998 18.17 3.12998 17.69 3.41998 17.4C3.70998 17.11 4.18998 17.11 4.47998 17.4L5.01001 17.93L5.51001 17.43C5.80001 17.14 6.28001 17.14 6.57001 17.43C6.86001 17.72 6.86001 18.2 6.57001 18.49L6.07001 18.99L6.59998 19.52C6.88998 19.81 6.88998 20.28 6.59998 20.58Z" />
</svg>
